dist/svgs/geomicons-open/icons/twitter.svg

<svg xmlns="http://www.w3.org/2000/svg" viewBox="0 0 32 32"><path d="M2 4c4 4 8 8 13 7a6 6 0 017-7 6 6 0 014 2 8 8 0 005-2 8 8 0 01-3 4 8 8 0 004-1 8 8 0 01-4 4 18 18 0 01-18 19 18 18 0 01-10-3 12 12 0 008-3 8 8 0 01-5-4 8 8 0 003-.5A8 8 0 010 12a8 8 0 003 1 8 8 0 01-1-9"/></svg>

<svg id="twitter" xmlns="http://www.w3.org/2000/svg" viewBox="0 0 32 32" width="32" height="32" fill="currentcolor">
  <path d="M2 4 C6 8 10 12 15 11 A6 6 0 0 1 22 4 A6 6 0 0 1 26 6 A8 8 0 0 0 31 4 A8 8 0 0 1 28 8 A8 8 0 0 0 32 7 A8 8 0 0 1 28 11 A18 18 0 0 1 10 30 A18 18 0 0 1 0 27 A12 12 0 0 0 8 24 A8 8 0 0 1 3 20 A8 8 0 0 0 6 19.5 A8 8 0 0 1 0 12 A8 8 0 0 0 3 13 A8 8 0 0 1 2 4"></path>
</svg>
